rtdata/profiles/Creative/High Contrast BW.pp3
[Black & White]
Enabled=true
Method=Desaturation
Auto=false
ComplementaryColors=true
MixerRed=40
MixerOrange=30
MixerYellow=20
MixerGreen=15
MixerCyan=-5
MixerBlue=-10
MixerMagenta=10
MixerPurple=5

[Exposure]
Auto=false
Compensation=0.2
Contrast=30
Black=200
HighlightCompr=50
ShadowCompr=30
CurveMode=FilmLike
Curve=3;0;0;0.15;0.05;0.45;0.55;0.85;0.95;1;1;

[SharpenMicro]
Enabled=true
Matrix=false
Strength=60
Contrast=20
Uniformity=50
