rtdata/profiles/Creative/Moody Landscape.pp3
[Dehaze]
Enabled=true
Strength=40
Depth=60
Saturation=0

[Exposure]
Auto=false
Compensation=0.1
Contrast=20
Black=100
HighlightCompr=60
ShadowCompr=80
CurveMode=FilmLike
Curve=3;0;0;0.15;0.10;0.45;0.50;0.80;0.88;1;1;

[Vibrance]
Enabled=true
Pastels=25
Saturated=15
ProtectSkins=true

[SharpenMicro]
Enabled=true
Matrix=false
Strength=50
Contrast=15
Uniformity=50
