rtdata/profiles/Creative/Soft Portrait.pp3
[Sharpening]
Enabled=true
Contrast=10
Method=usm
Radius=0.8
Amount=80
Threshold=20;80;2000;1200;

[White Balance]
Enabled=true
Setting=Custom
Temperature=5600
Green=0.99

[Exposure]
Auto=false
Compensation=0.15
Contrast=-5
HighlightCompr=80
ShadowCompr=60
CurveMode=FilmLike
Curve=3;0;0;0.20;0.18;0.50;0.52;0.80;0.84;1;1;

[Vibrance]
Enabled=true
Pastels=10
Saturated=-5
ProtectSkins=true
