rtdata/profiles/Film Looks/Street Tri-X.pp3
[Film Presets]
Enabled=true
Preset=street_800
ModelVersion=2
Exposure=0
PushPull=1
Process=bw
Output=scan
Format=35mm
Strength=85
Contrast=20
Grain=25
Saturation=-80

[Exposure]
Auto=false
Compensation=0.1
Contrast=20
Black=150
HighlightCompr=40
ShadowCompr=30
CurveMode=FilmLike
Curve=3;0;0;0.15;0.05;0.45;0.55;0.85;0.95;1;1;

[Sharpening]
Enabled=true
Contrast=20
Method=usm
Radius=0.9
Amount=110
Threshold=20;80;2000;1200;
